X: 29847
T: O'Donnell's
R: hornpipe
M: 4/4
K: Gmajor
Bc|dB ge dB ed|BG DG A2 AG|FG AB cd ef|(3gba (3gfe dc Bc|
dB ge dB ed|BG DG A2 AG|FG AB cd ef|(3gfg ba g2:|
ef|gb ag fa gf|eg fe fd Bd|gb ag fa gf|eg fe fd Bd|
(3cdc Ac (3BdB GB|(3ABA FA GF EF|DE FG AB cA|(3GBd (3gdB G2:|

